assets/img/linkedin-icon-square.svg

<svg xmlns="http://www.w3.org/2000/svg" width="24" height="24" viewBox="0 0 24 24"><path d="M0 0v24h24v-24h-24zm8 19h-3v-11h3v11zm-1.5-12.268c-.966 0-1.75-.79-1.75-1.764s.784-1.764 1.75-1.764 1.75.79 1.75 1.764-.783 1.764-1.75 1.764zm13.5 12.268h-3v-5.604c0-3.368-4-3.113-4 0v5.604h-3v-11h3v1.765c1.397-2.586 7-2.777 7 2.476v6.759z"/></svg>

<?xml version="1.0" encoding="utf-8"?>
<!-- Generator: Adobe Illustrator 21.0.0, SVG Export Plug-In . SVG Version: 6.00 Build 0)  -->
<svg version="1.1" id="Layer_1" xmlns="http://www.w3.org/2000/svg" xmlns:xlink="http://www.w3.org/1999/xlink" x="0px" y="0px"
	 viewBox="0 0 24 24" style="enable-background:new 0 0 24 24;" xml:space="preserve">
<style type="text/css">
	.st0{fill:#FFFFFF;}
</style>
<path class="st0" d="M0,0v24h24V0H0z M8,19H5V8h3V19z M6.5,6.7c-1,0-1.8-0.8-1.8-1.8s0.8-1.8,1.8-1.8S8.3,4,8.3,5S7.5,6.7,6.5,6.7z
	 M20,19h-3v-5.6c0-3.4-4-3.1-4,0V19h-3V8h3v1.8c1.4-2.6,7-2.8,7,2.5V19z"/>
</svg>
